src/Assests/SVG/social/linkedin.svg

<svg width="32" height="32" viewBox="0 0 32 32" fill="none" xmlns="http://www.w3.org/2000/svg"><g clip-path="url(#a)"><path d="M16 0C7.164 0 0 7.164 0 16s7.164 16 16 16 16-7.164 16-16S24.836 0 16 0Zm-2.6667 21.3333h-2.6666v-8h2.6666v8ZM12 12.1453c-.8093 0-1.4667-.6613-1.4667-1.4786 0-.816.656-1.4787 1.4667-1.4787.8107 0 1.4667.6627 1.4667 1.4787 0 .8173-.6574 1.4786-1.4667 1.4786Zm10.6667 9.188h-2.664v-3.8146c0-2.508-2.6694-2.296-2.6694 0v3.8146h-2.6666v-8h2.6666v1.4574c1.1627-2.1547 5.3334-2.3147 5.3334 2.064v4.4786Z" fill="#000"/></g><defs><clipPath id="a"><path fill="#fff" d="M0 0h32v32H0z"/></clipPath></defs></svg>

<svg width="32" height="32" viewBox="0 0 32 32" fill="none" xmlns="http://www.w3.org/2000/svg">
<g clip-path="url(#clip0_99_513)">
<path d="M16 0C7.164 0 0 7.164 0 16C0 24.836 7.164 32 16 32C24.836 32 32 24.836 32 16C32 7.164 24.836 0 16 0ZM13.3333 21.3333H10.6667V13.3333H13.3333V21.3333ZM12 12.1453C11.1907 12.1453 10.5333 11.484 10.5333 10.6667C10.5333 9.85067 11.1893 9.188 12 9.188C12.8107 9.188 13.4667 9.85067 13.4667 10.6667C13.4667 11.484 12.8093 12.1453 12 12.1453ZM22.6667 21.3333H20.0027V17.5187C20.0027 15.0107 17.3333 15.2227 17.3333 17.5187V21.3333H14.6667V13.3333H17.3333V14.7907C18.496 12.636 22.6667 12.476 22.6667 16.8547V21.3333Z" fill="#000"/>
</g>
<defs>
<clipPath id="clip0_99_513">
<rect width="32" height="32" fill="white"/>
</clipPath>
</defs>
</svg>
